lib/assets/icons/svg/outlined-social-birthday.svg

<svg xmlns="http://www.w3.org/2000/svg" viewBox="0 0 24 24"><path d="M3.06 21.505a.5.5 0 0 1 0-1h.55v-3.17c0-.022.001-.043.004-.064A2.169 2.169 0 0 1 2.5 15.365v-2a2 2 0 0 1 2-2h.87v-2.85a.51.51 0 0 1 .5-.5h1.84a.51.51 0 0 1 .5.5v2.85h2.37v-3.55a.5.5 0 0 1 .5-.5h1.84a.5.5 0 0 1 .5.5v3.55h2.35v-2.85a.5.5 0 0 1 .5-.5h1.83a.5.5 0 0 1 .5.5v2.85h.9a2 2 0 0 1 2 2v2.43a2 2 0 0 1-.59 1.47c-.122.13-.26.242-.41.334v2.906h.44a.51.51 0 0 1 .5.5.5.5 0 0 1-.5.5zm1.55-1H19.5v-2.61h-.06a2.079 2.079 0 0 1-2.09-2.09v-1.29a.37.37 0 0 0-.37-.38.38.38 0 0 0-.39.38v.39c0 1.57-1.7 2.552-3.06 1.767a2.041 2.041 0 0 1-1.02-1.767v-.39a.37.37 0 0 0-.11-.27.46.46 0 0 0-.6 0 .4.4 0 0 0-.11.27v1.87a2.06 2.06 0 0 1-2.05 2.05 2.06 2.06 0 0 1-2.05-2.07v-1.86a.388.388 0 0 0-.11-.27.38.38 0 0 0-.53 0 .352.352 0 0 0-.11.27v.85a2.162 2.162 0 0 1-.63 1.54c-.4.416-.953.651-1.53.65l-.07-.001zm2.6-7.38a1.34 1.34 0 0 1 1 .41c.264.265.409.626.4 1v1.87a1.045 1.045 0 0 0 2.09 0v-1.89a1.38 1.38 0 0 1 1.38-1.39c.375-.002.734.146 1 .41.263.265.408.626.4 1v.39a1.06 1.06 0 0 0 1 1.06c.279.004.547-.108.74-.31.192-.202.3-.471.3-.75v-.39a1.38 1.38 0 0 1 2.76 0v1.22c-.003.29.113.568.32.77a.999.999 0 0 0 .76.32 1.07 1.07 0 0 0 .76-.32c.199-.207.31-.483.31-.77v-2.44a1 1 0 0 0-1-1h-15a1 1 0 0 0-1 1v2c-.001.311.121.609.34.83.216.227.517.353.83.35a1.18 1.18 0 0 0 1.17-1.18v-.86a1.37 1.37 0 0 1 1.44-1.33zm4.37-1.81h.84v-3h-.84zm.52-4.18h-.2a1.14 1.14 0 0 1-.33 0 1.592 1.592 0 0 1-1-.67 1.638 1.638 0 0 1-.24-1.2v-.09a13.72 13.72 0 0 1 1.24-2.41.501.501 0 0 1 .43-.27.5.5 0 0 1 .42.23c.502.791.927 1.628 1.27 2.5a.33.33 0 0 1 0 .14c.01.113.01.227 0 .34a1.631 1.631 0 0 1-1.59 1.43zm-.18-1a.75.75 0 0 0 .57-.14.655.655 0 0 0 .23-.42.206.206 0 0 0 0-.07 14.496 14.496 0 0 0-.72-1.51c-.271.48-.508.978-.71 1.49a.545.545 0 0 0 .1.41.563.563 0 0 0 .38.25.266.266 0 0 0 .15-.02zm4.85 5.18h.83v-2.32h-.83zm.51-3.49h-.2a.75.75 0 0 1-.32 0 1.6 1.6 0 0 1-1.26-1.91.272.272 0 0 1 0-.09c.333-.845.748-1.656 1.24-2.42a.5.5 0 0 1 .84 0c.506.789.931 1.626 1.27 2.5a.818.818 0 0 1 0 .14c.01.116.01.234 0 .35a1.64 1.64 0 0 1-1.57 1.43zm-.17-1a.67.67 0 0 0 .8-.55v-.08a12.824 12.824 0 0 0-.73-1.54c-.267.482-.504.979-.71 1.49a.6.6 0 0 0 .48.66zm-10.74 4.49h.84v-2.32h-.84zm.52-3.49h-.2a.75.75 0 0 1-.32 0 1.61 1.61 0 0 1-1.27-1.91v-.09c.342-.847.768-1.657 1.27-2.42a.5.5 0 0 1 .84 0c.502.791.927 1.628 1.27 2.5a.366.366 0 0 1 0 .14c.01.113.01.227 0 .34a1.66 1.66 0 0 1-.62 1.09 1.595 1.595 0 0 1-.97.35zm-.17-1a.699.699 0 0 0 .55-.13.59.59 0 0 0 .24-.42.165.165 0 0 0 0-.07 14.635 14.635 0 0 0-.73-1.54c-.271.48-.508.978-.71 1.49a.6.6 0 0 0 .48.66z"/></svg>

<svg viewBox="0 0 24 24" xmlns="http://www.w3.org/2000/svg">
  <path  d="M 3.06 21.505 C 2.675 21.505 2.435 21.088 2.627 20.755 C 2.716 20.6 2.881 20.505 3.06 20.505 L 3.61 20.505 L 3.61 17.335 C 3.61 17.313 3.611 17.292 3.614 17.271 C 2.947 16.899 2.496 16.184 2.5 15.365 L 2.5 13.365 C 2.5 12.26 3.395 11.365 4.5 11.365 L 5.37 11.365 L 5.37 8.515 C 5.375 8.241 5.596 8.02 5.87 8.015 L 7.71 8.015 C 7.984 8.02 8.205 8.241 8.21 8.515 L 8.21 11.365 L 10.58 11.365 L 10.58 7.815 C 10.58 7.539 10.804 7.315 11.08 7.315 L 12.92 7.315 C 13.196 7.315 13.42 7.539 13.42 7.815 L 13.42 11.365 L 15.77 11.365 L 15.77 8.515 C 15.77 8.239 15.994 8.015 16.27 8.015 L 18.1 8.015 C 18.376 8.015 18.6 8.239 18.6 8.515 L 18.6 11.365 L 19.5 11.365 C 20.605 11.365 21.5 12.26 21.5 13.365 L 21.5 15.795 C 21.514 16.345 21.301 16.877 20.91 17.265 C 20.788 17.395 20.65 17.507 20.5 17.599 L 20.5 20.505 L 20.94 20.505 C 21.214 20.51 21.435 20.731 21.44 21.005 C 21.44 21.281 21.216 21.505 20.94 21.505 Z M 4.61 20.505 L 19.5 20.505 L 19.5 17.895 C 19.48 17.895 19.46 17.895 19.44 17.895 C 18.283 17.901 17.344 16.962 17.35 15.805 L 17.35 14.515 C 17.356 14.307 17.188 14.135 16.98 14.135 C 16.766 14.129 16.59 14.301 16.59 14.515 L 16.59 14.905 C 16.59 16.475 14.89 17.457 13.53 16.672 C 12.899 16.307 12.51 15.634 12.51 14.905 L 12.51 14.515 C 12.512 14.414 12.472 14.316 12.4 14.245 C 12.228 14.097 11.972 14.097 11.8 14.245 C 11.731 14.318 11.691 14.414 11.69 14.515 L 11.69 16.385 C 11.685 17.515 10.77 18.43 9.64 18.435 C 8.502 18.429 7.584 17.503 7.59 16.365 L 7.59 14.505 C 7.59 14.404 7.55 14.307 7.48 14.235 C 7.332 14.091 7.098 14.091 6.95 14.235 C 6.876 14.305 6.836 14.403 6.84 14.505 L 6.84 15.355 C 6.844 15.932 6.617 16.486 6.21 16.895 C 5.81 17.311 5.257 17.546 4.68 17.545 C 4.657 17.545 4.633 17.545 4.61 17.544 Z M 7.21 13.125 C 7.586 13.115 7.949 13.264 8.21 13.535 C 8.474 13.8 8.619 14.161 8.61 14.535 L 8.61 16.405 C 8.61 17.209 9.481 17.712 10.177 17.31 C 10.501 17.123 10.7 16.778 10.7 16.405 L 10.7 14.515 C 10.694 13.749 11.314 13.125 12.08 13.125 C 12.455 13.123 12.814 13.271 13.08 13.535 C 13.343 13.8 13.488 14.161 13.48 14.535 L 13.48 14.925 C 13.479 15.488 13.918 15.953 14.48 15.985 C 14.759 15.989 15.027 15.877 15.22 15.675 C 15.412 15.473 15.52 15.204 15.52 14.925 L 15.52 14.535 C 15.52 13.473 16.67 12.809 17.59 13.34 C 18.017 13.586 18.28 14.042 18.28 14.535 L 18.28 15.755 C 18.277 16.045 18.393 16.323 18.6 16.525 C 18.796 16.736 19.072 16.853 19.36 16.845 C 19.646 16.844 19.92 16.729 20.12 16.525 C 20.319 16.318 20.43 16.042 20.43 15.755 L 20.43 13.315 C 20.43 12.763 19.982 12.315 19.43 12.315 L 4.43 12.315 C 3.878 12.315 3.43 12.763 3.43 13.315 L 3.43 15.315 C 3.429 15.626 3.551 15.924 3.77 16.145 C 3.986 16.372 4.287 16.498 4.6 16.495 C 5.248 16.49 5.77 15.963 5.77 15.315 L 5.77 14.455 C 5.791 13.686 6.442 13.085 7.21 13.125 Z M 11.58 11.315 L 12.42 11.315 L 12.42 8.315 L 11.58 8.315 Z M 12.1 7.135 L 11.9 7.135 C 11.791 7.151 11.679 7.151 11.57 7.135 C 11.162 7.051 10.803 6.811 10.57 6.465 C 10.338 6.111 10.252 5.681 10.33 5.265 L 10.33 5.175 C 10.663 4.333 11.078 3.525 11.57 2.765 C 11.654 2.604 11.818 2.5 12 2.495 C 12.17 2.495 12.328 2.582 12.42 2.725 C 12.922 3.516 13.347 4.353 13.69 5.225 C 13.7 5.271 13.7 5.319 13.69 5.365 C 13.7 5.478 13.7 5.592 13.69 5.705 C 13.59 6.511 12.912 7.121 12.1 7.135 Z M 11.92 6.135 C 12.121 6.168 12.327 6.117 12.49 5.995 C 12.617 5.889 12.699 5.739 12.72 5.575 C 12.724 5.552 12.724 5.528 12.72 5.505 C 12.509 4.988 12.269 4.484 12 3.995 C 11.729 4.475 11.492 4.973 11.29 5.485 C 11.267 5.63 11.303 5.777 11.39 5.895 C 11.476 6.028 11.614 6.119 11.77 6.145 C 11.821 6.153 11.873 6.146 11.92 6.125 Z M 16.77 11.315 L 17.6 11.315 L 17.6 8.995 L 16.77 8.995 Z M 17.28 7.825 L 17.08 7.825 C 16.975 7.848 16.865 7.848 16.76 7.825 C 15.879 7.655 15.31 6.792 15.5 5.915 C 15.495 5.885 15.495 5.855 15.5 5.825 C 15.833 4.98 16.248 4.169 16.74 3.405 C 16.832 3.262 16.99 3.175 17.16 3.175 C 17.33 3.175 17.488 3.262 17.58 3.405 C 18.086 4.194 18.511 5.031 18.85 5.905 C 18.854 5.952 18.854 5.998 18.85 6.045 C 18.86 6.161 18.86 6.279 18.85 6.395 C 18.748 7.192 18.083 7.797 17.28 7.825 Z M 17.11 6.825 C 17.485 6.904 17.85 6.653 17.91 6.275 L 17.91 6.195 C 17.701 5.666 17.457 5.151 17.18 4.655 C 16.913 5.137 16.676 5.634 16.47 6.145 C 16.433 6.457 16.642 6.744 16.95 6.805 Z M 6.37 11.315 L 7.21 11.315 L 7.21 8.995 L 6.37 8.995 Z M 6.89 7.825 L 6.69 7.825 C 6.585 7.848 6.475 7.848 6.37 7.825 C 5.488 7.654 4.916 6.795 5.1 5.915 L 5.1 5.825 C 5.442 4.978 5.868 4.168 6.37 3.405 C 6.462 3.262 6.62 3.175 6.79 3.175 C 6.96 3.175 7.118 3.262 7.21 3.405 C 7.712 4.196 8.137 5.033 8.48 5.905 C 8.489 5.951 8.489 5.999 8.48 6.045 C 8.49 6.158 8.49 6.272 8.48 6.385 C 8.424 6.815 8.201 7.207 7.86 7.475 C 7.584 7.696 7.243 7.819 6.89 7.825 Z M 6.72 6.825 C 6.913 6.861 7.113 6.814 7.27 6.695 C 7.406 6.596 7.494 6.443 7.51 6.275 C 7.515 6.252 7.515 6.228 7.51 6.205 C 7.297 5.678 7.053 5.164 6.78 4.665 C 6.509 5.145 6.272 5.643 6.07 6.155 C 6.033 6.467 6.242 6.754 6.55 6.815 Z"/>
</svg>
